Numix-GalliumOS/22/mimetypes/application-x-mono-develop.svg

<?xml version="1.0" encoding="UTF-8" standalone="no"?>
<svg
   xmlns:dc="http://purl.org/dc/elements/1.1/"
   xmlns:cc="http://creativecommons.org/ns#"
   xmlns:rdf="http://www.w3.org/1999/02/22-rdf-syntax-ns#"
   xmlns:svg="http://www.w3.org/2000/svg"
   xmlns="http://www.w3.org/2000/svg"
   xmlns:sodipodi="http://sodipodi.sourceforge.net/DTD/sodipodi-0.dtd"
   xmlns:inkscape="http://www.inkscape.org/namespaces/inkscape"
   width="22"
   height="22"
   viewBox="0 0 22 22"
   id="svg2"
   version="1.1"
   inkscape:version="0.48.5 r10040"
   sodipodi:docname="application-x-mono-develop.svg">
  <metadata
     id="metadata16">
    <rdf:RDF>
      <cc:Work
         rdf:about="">
        <dc:format>image/svg+xml</dc:format>
        <dc:type
           rdf:resource="http://purl.org/dc/dcmitype/StillImage" />
      </cc:Work>
    </rdf:RDF>
  </metadata>
  <defs
     id="defs14">
    <clipPath
       id="clipPath-902001221">
      <g
         transform="translate(0,-1004.3622)"
         id="g12">
        <path
           style="fill:#1890d0"
           inkscape:connector-curvature="0"
           d="m -24,13 c 0,1.105 -0.672,2 -1.5,2 -0.828,0 -1.5,-0.895 -1.5,-2 0,-1.105 0.672,-2 1.5,-2 0.828,0 1.5,0.895 1.5,2 z"
           transform="matrix(15.333333,0,0,11.5,414.99999,878.8622)"
           id="path14" />
      </g>
    </clipPath>
  </defs>
  <sodipodi:namedview
     pagecolor="#ffffff"
     bordercolor="#666666"
     borderopacity="1"
     objecttolerance="10"
     gridtolerance="10"
     guidetolerance="10"
     inkscape:pageopacity="0"
     inkscape:pageshadow="2"
     inkscape:window-width="1280"
     inkscape:window-height="970"
     id="namedview12"
     showgrid="true"
     inkscape:zoom="5.2149125"
     inkscape:cx="31.598986"
     inkscape:cy="13.604346"
     inkscape:window-x="0"
     inkscape:window-y="0"
     inkscape:window-maximized="1"
     inkscape:current-layer="svg2">
    <inkscape:grid
       type="xygrid"
       id="grid3028"
       empspacing="5"
       visible="true"
       enabled="true"
       snapvisiblegridlinesonly="true" />
  </sodipodi:namedview>
  <path
     style="fill:#678bb8;fill-opacity:1"
     d="M 4,0 C 3.527343,0 3,0.527344 3,1 l 0,20 c 0,0.445312 0.554687,1 1,1 l 14,0 c 0.445313,0 0.992367,-0.554753 1,-1 L 19,6 13,0 z"
     id="path4-4"
     inkscape:connector-curvature="0"
     sodipodi:nodetypes="ssssssccs" />
  <path
     style="fill:#ffffff;fill-opacity:0.39200003"
     d="m 13,0 6,6 -5,0 C 13.554688,6 13,5.445312 13,5 z"
     id="path8"
     inkscape:connector-curvature="0"
     sodipodi:nodetypes="ccssc" />
  <path
     style="fill:#ffffff;fill-opacity:1;fill-rule:nonzero;stroke:none"
     d="m 8.6258429,6.5067299 c -1.7562796,0 -3.9653553,1.7129713 -3.9459211,4.3644571 0.018217,2.565674 0.8469256,3.956176 1.4797205,5.529407 L 8.037137,15.596615 C 7.6071762,14.692473 7.0430047,13.796474 6.8438141,13.348756 6.2851084,12.095145 6.0963651,11.529737 6.1437313,10.575848 6.1874567,9.653052 6.4857566,9.0885009 7.0347458,8.5412896 7.5813057,7.9978085 8.34151,7.7228244 9.2463707,7.8521643 c 1.3037473,0.1843081 1.9925743,0.9375094 2.3230023,1.6243659 0.186925,-0.026633 0.377761,-0.050392 0.588706,-0.049224 0.165101,0.00121 0.330463,0.0132 0.49324,0.049224 C 12.300046,8.0488979 10.572481,6.5067299 8.6258429,6.5067299 z M 9.4213915,9.0007055 C 8.6230155,8.9460233 7.4570561,9.3485241 7.464342,10.608664 c 0.00463,1.192493 0.72953,2.085772 1.591097,2.444752 -0.018712,-0.300288 0.00148,-0.633398 0.047733,-0.968057 C 8.6358445,11.823337 8.3525009,11.357817 8.3076239,10.70711 8.2541826,9.9845428 8.9501358,9.2548328 10.057831,9.6241998 10.236374,9.6839006 10.242325,9.3654938 10.041919,9.1975987 9.9116547,9.0909566 9.6875159,9.0189334 9.4213908,9.0007055 z M 12.158079,9.952355 c -0.140152,-7.879e-4 -0.272775,0.00481 -0.397775,0.016403 0.03285,0.128614 0.05589,0.256956 0.06364,0.36097 0.08086,-0.0052 0.168401,-0.0043 0.254576,0 0.23506,0.01114 0.452592,0.05074 0.65235,0.114851 0.0077,-0.135241 0.0036,-0.265009 0,-0.393786 -0.189298,-0.060897 -0.382164,-0.097031 -0.572795,-0.098448 z m -0.381864,0.886017 c -0.12433,0.555606 -0.502857,1.23669 -1.272877,1.427473 -0.01863,0.114548 -0.03638,0.222997 -0.03182,0.295339 0.0097,0.151867 0.04039,0.363346 0.127287,0.590679 1.319213,-0.25017 1.886956,-1.204909 2.068427,-2.182229 -0.176248,-0.07242 -0.378073,-0.119745 -0.620529,-0.131267 -0.09413,-0.0047 -0.188097,-0.0083 -0.270486,0 z m -2.1798029,1.44388 c -0.027397,0.253598 -0.047056,0.505383 -0.031821,0.738349 0.00351,0.0546 0.00695,0.107577 0.015912,0.164077 0.098163,0.015 0.1881583,0.0484 0.2863973,0.04922 0.082484,4.16e-4 0.1605789,-0.01238 0.2386649,-0.0164 -0.07763,-0.22597 -0.1315735,-0.441171 -0.1432001,-0.623492 -0.00493,-0.07865 -0.007,-0.170602 0,-0.262525 -0.1274759,-0.0066 -0.2527547,-0.02593 -0.3659523,-0.04922 z"
     id="path55"
     inkscape:connector-curvature="0" />
  <path
     id="path57"
     stroke-miterlimit="4"
     d="m 15.869634,6.5148243 c 0.634009,1.5707452 1.475713,2.9549398 1.49393,5.5231017 0.01943,2.651487 -2.20203,4.366496 -3.958309,4.366496 -2.125511,0 -3.9959609,-1.838132 -4.0931274,-3.359131 -0.089879,-1.374246 0.3874503,-3.3715665 2.8518294,-3.3578856 1.176926,0.00866 2.400005,1.0558686 2.406079,2.6154206 0.0085,1.681431 -2.052637,1.84808 -2.571262,1.419018 -0.200406,-0.166651 -0.194332,-0.496221 -0.01822,-0.436526 1.110123,0.369369 1.793931,-0.359417 1.744134,-1.083229 -0.06923,-0.98498 -0.638868,-1.569501 -1.660329,-1.618004 -1.473283,-0.07213 -1.885025,1.394145 -1.847372,1.991103 0.04615,0.723811 0.661944,2.212474 2.579762,2.483593 0.904861,0.129329 1.656685,-0.148001 2.203245,-0.692721 0.54656,-0.545967 0.857492,-1.108102 0.901217,-2.030899 0.04616,-0.953888 -0.156681,-1.513536 -0.714173,-2.7671477 C 14.98785,9.1190526 14.431574,8.2186411 13.999185,7.3144993 l 1.871664,-0.799675 m -0.0024,0"
     inkscape:connector-curvature="0"
     style="fill:#a9c1e3;fill-opacity:1;fill-rule:nonzero;stroke:none" />
  <path
     style="fill:#000000;fill-opacity:0.19599998"
     d="m 14,6 5,5 0,-5 z"
     id="path6"
     inkscape:connector-curvature="0"
     sodipodi:nodetypes="cccc" />
</svg>

<svg xmlns="http://www.w3.org/2000/svg" viewBox="0 0 22 22">
 <defs>
  
 </defs>
 <path d="m 4 0 c -0.473 0 -1 0.527 -1 1 l 0 20 c 0 0.445 0.555 1 1 1 l 14 0 c 0.445 0 0.992 -0.555 1 -1 l 0 -15 -6 -6 z" style="fill:#678bb8;fill-opacity:1"/>
 <path d="m 13 0 6 6 -5 0 c -0.445 0 -1 -0.555 -1 -1 z" style="fill:#fff;fill-opacity:0.392"/>
 <path d="m 8.626 6.507 c -1.756 0 -3.965 1.713 -3.946 4.364 0.018 2.566 0.847 3.956 1.48 5.529 l 1.877 -0.804 c -0.43 -0.904 -0.994 -1.8 -1.193 -2.248 -0.559 -1.254 -0.747 -1.819 -0.7 -2.773 0.044 -0.923 0.342 -1.487 0.891 -2.035 0.547 -0.543 1.307 -0.818 2.212 -0.689 c 1.304 0.184 1.993 0.938 2.323 1.624 0.187 -0.027 0.378 -0.05 0.589 -0.049 0.165 0.001 0.33 0.013 0.493 0.049 c -0.351 -1.428 -2.079 -2.97 -4.03 -2.97 z m 0.796 2.494 c -0.798 -0.055 -1.964 0.348 -1.957 1.608 c 0.005 1.192 0.73 2.086 1.591 2.445 -0.019 -0.3 0.001 -0.633 0.048 -0.968 c -0.467 -0.262 -0.751 -0.728 -0.796 -1.378 -0.053 -0.723 0.643 -1.452 1.75 -1.083 0.179 0.06 0.184 -0.259 -0.016 -0.427 -0.13 -0.107 -0.354 -0.179 -0.621 -0.197 z m 2.737 0.952 c -0.14 -0.001 -0.273 0.005 -0.398 0.016 0.033 0.129 0.056 0.257 0.064 0.361 0.081 -0.005 0.168 -0.004 0.255 0 0.235 0.011 0.453 0.051 0.652 0.115 0.008 -0.135 0.004 -0.265 0 -0.394 -0.189 -0.061 -0.382 -0.097 -0.573 -0.098 z m -0.382 0.886 c -0.124 0.556 -0.503 1.237 -1.273 1.427 -0.019 0.115 -0.036 0.223 -0.032 0.295 0.01 0.152 0.04 0.363 0.127 0.591 1.319 -0.25 1.887 -1.205 2.068 -2.182 -0.176 -0.072 -0.378 -0.12 -0.621 -0.131 -0.094 -0.005 -0.188 -0.008 -0.27 0 z m -2.18 1.444 c -0.027 0.254 -0.047 0.505 -0.032 0.738 0.004 0.055 0.007 0.108 0.016 0.164 0.098 0.015 0.188 0.048 0.286 0.049 0.082 0 0.161 -0.012 0.239 -0.016 -0.078 -0.226 -0.132 -0.441 -0.143 -0.623 -0.005 -0.079 -0.007 -0.171 0 -0.263 -0.127 -0.007 -0.253 -0.026 -0.366 -0.049 z" style="fill:#fff;fill-opacity:1;stroke:none;fill-rule:nonzero"/>
 <path d="m 15.87 6.515 c 0.634 1.571 1.476 2.955 1.494 5.523 0.019 2.651 -2.202 4.366 -3.958 4.366 -2.126 0 -3.996 -1.838 -4.093 -3.359 -0.09 -1.374 0.387 -3.372 2.852 -3.358 1.177 0.009 2.4 1.056 2.406 2.615 0.008 1.681 -2.053 1.848 -2.571 1.419 -0.2 -0.167 -0.194 -0.496 -0.018 -0.437 1.11 0.369 1.794 -0.359 1.744 -1.083 -0.069 -0.985 -0.639 -1.57 -1.66 -1.618 -1.473 -0.072 -1.885 1.394 -1.847 1.991 0.046 0.724 0.662 2.212 2.58 2.484 0.905 0.129 1.657 -0.148 2.203 -0.693 0.547 -0.546 0.857 -1.108 0.901 -2.031 0.046 -0.954 -0.157 -1.514 -0.714 -2.767 c -0.199 -0.449 -0.755 -1.349 -1.188 -2.254 l 1.872 -0.8 m -0.002 0" style="fill:#a9c1e3;fill-opacity:1;stroke:none;fill-rule:nonzero"/>
 <path d="m 14 6 5 5 0 -5 z" style="fill:#000;fill-opacity:0.196"/>
</svg>
